svgs/waifupx.svg

<svg viewBox="0 0 192 192" xml:space="preserve" style="fill-rule:evenodd;clip-rule:evenodd;stroke-linejoin:round;stroke-miterlimit:2" xmlns="http://www.w3.org/2000/svg"><path d="m521.639 981.708-46.026-92.38c-2.922-6.558-7.293-10.168-11.733-11.784-4.893-1.782-10.06-1.195-14.346 1.139-8.088 4.403-13.417 15.117-6.339 27.222l46.019 92.367c2.922 6.558 7.293 10.178 11.732 11.788 4.894 1.78 10.062 1.2 14.349-1.14 8.086-4.4 13.415-15.12 6.337-27.223l.007.011Zm55.299 0-46.026-92.38c-2.923-6.558-7.294-10.168-11.733-11.784-4.893-1.782-10.06-1.195-14.347 1.139-8.087 4.403-13.417 15.117-6.338 27.222l46.019 92.367c2.922 6.558 7.293 10.178 11.732 11.788 4.893 1.78 10.061 1.2 14.348-1.14 8.087-4.4 13.415-15.12 6.338-27.223l.007.011Zm-112.19-87.278 46.344 93.018.114.192c2.802 4.71 1.492 9.032-1.651 10.744-3.096 1.686-7.105.178-9.417-5.08l-.058-.132-46.345-93.019-.114-.192c-2.801-4.708-1.492-9.028 1.65-10.739 3.096-1.685 7.107-.179 9.419 5.076l.058.132Zm55.298 0 46.345 93.018.114.192c2.802 4.71 1.492 9.032-1.651 10.744-3.096 1.686-7.106.178-9.417-5.08l-.058-.132-46.345-93.019-.114-.192c-2.801-4.708-1.492-9.028 1.65-10.739 3.096-1.685 7.107-.179 9.419 5.076l.057.132Zm76.74 20.029-12.723-24.554c-2.921-6.532-7.282-10.131-11.712-11.744-4.893-1.782-10.061-1.195-14.348 1.14-8.096 4.409-13.427 15.146-6.313 27.267l12.717 24.556c2.922 6.53 7.284 10.126 11.714 11.738 4.893 1.78 10.061 1.191 14.347-1.145 8.096-4.411 13.426-15.148 6.312-27.269l.006.011Zm-10.578 5.668.171.307c2.802 4.71 1.491 9.033-1.652 10.746-3.096 1.686-7.106.183-9.417-5.072l-.077-.174-13.051-25.199-.09-.152c-2.802-4.71-1.492-9.032 1.651-10.744 3.096-1.686 7.105-.178 9.417 5.08l.077.176 12.971 25.032Z" style="fill-rule:evenodd;clip-rule:evenodd;stroke-linejoin:round;stroke-miterlimit:2" transform="translate(-424 -848)"/></svg>

<?xml version="1.0" encoding="UTF-8" standalone="no"?>
<svg
   width="100%"
   height="100%"
   viewBox="0 0 192 192"
   version="1.1"
   xml:space="preserve"
   style="fill-rule:evenodd;clip-rule:evenodd;stroke-linejoin:round;stroke-miterlimit:2;"
   id="svg10"
   sodipodi:docname="waifupx.svg"
   inkscape:version="1.2.1 (9c6d41e410, 2022-07-14)"
   xmlns:inkscape="http://www.inkscape.org/namespaces/inkscape"
   xmlns:sodipodi="http://sodipodi.sourceforge.net/DTD/sodipodi-0.dtd"
   xmlns="http://www.w3.org/2000/svg"
   xmlns:svg="http://www.w3.org/2000/svg"><defs
   id="defs14" /><sodipodi:namedview
   id="namedview12"
   pagecolor="#ffffff"
   bordercolor="#000000"
   borderopacity="0.25"
   inkscape:showpageshadow="2"
   inkscape:pageopacity="0.0"
   inkscape:pagecheckerboard="0"
   inkscape:deskcolor="#d1d1d1"
   showgrid="false"
   inkscape:zoom="2.5013058"
   inkscape:cx="108.5433"
   inkscape:cy="75.160741"
   inkscape:window-width="1274"
   inkscape:window-height="1303"
   inkscape:window-x="1282"
   inkscape:window-y="36"
   inkscape:window-maximized="0"
   inkscape:current-layer="svg10" />
    <path
   d="M521.639,981.708L475.613,889.328C472.691,882.77 468.32,879.16 463.88,877.544C458.987,875.762 453.82,876.349 449.534,878.683C441.446,883.086 436.117,893.8 443.195,905.905C443.188,905.893 489.214,998.272 489.214,998.272C492.136,1004.83 496.507,1008.45 500.946,1010.06C505.84,1011.84 511.008,1011.26 515.295,1008.92C523.381,1004.52 528.71,993.8 521.632,981.697L521.639,981.708ZM576.938,981.708L530.912,889.328C527.989,882.77 523.618,879.16 519.179,877.544C514.286,875.762 509.119,876.349 504.832,878.683C496.745,883.086 491.415,893.8 498.494,905.905C498.487,905.893 544.513,998.272 544.513,998.272C547.435,1004.83 551.806,1008.45 556.245,1010.06C561.138,1011.84 566.306,1011.26 570.593,1008.92C578.68,1004.52 584.008,993.8 576.931,981.697L576.938,981.708ZM464.748,894.43L511.092,987.448L511.206,987.64C514.008,992.35 512.698,996.672 509.555,998.384C506.459,1000.07 502.45,998.562 500.138,993.304L500.08,993.172C500.016,993.043 453.735,900.153 453.735,900.153L453.621,899.961C450.82,895.253 452.129,890.933 455.271,889.222C458.367,887.537 462.378,889.043 464.69,894.298L464.748,894.43ZM520.046,894.43L566.391,987.448L566.505,987.64C569.307,992.35 567.997,996.672 564.854,998.384C561.758,1000.07 557.748,998.562 555.437,993.304L555.379,993.172C555.314,993.043 509.034,900.153 509.034,900.153L508.92,899.961C506.119,895.253 507.428,890.933 510.57,889.222C513.666,887.537 517.677,889.043 519.989,894.298L520.046,894.43ZM596.786,914.459L584.063,889.905C581.142,883.373 576.781,879.774 572.351,878.161C567.458,876.379 562.29,876.966 558.003,879.301C549.907,883.71 544.576,894.447 551.69,906.568C551.684,906.557 564.407,931.124 564.407,931.124C567.329,937.654 571.691,941.25 576.121,942.862C581.014,944.642 586.182,944.053 590.468,941.717C598.564,937.306 603.894,926.569 596.78,914.448L596.786,914.459ZM586.208,920.127L586.379,920.434C589.181,925.144 587.87,929.467 584.727,931.18C581.631,932.866 577.621,931.363 575.31,926.108L575.233,925.934L562.182,900.735L562.092,900.583C559.29,895.873 560.6,891.551 563.743,889.839C566.839,888.153 570.848,889.661 573.16,894.919L573.237,895.095L586.208,920.127Z"
   id="path4"
   style="fill-rule:evenodd;clip-rule:evenodd;stroke-linejoin:round;stroke-miterlimit:2"
   transform="translate(-424,-848)"
   inkscape:label="waifupx_form" />
</svg>
